X:126
T:Fairly Shot of Her
M:6/8
L:1/8
K:G
B|:c2A c2A|c2e ecA|c2A c2A          |GBd dBG |
[1 c2A c2A|c2e ece|fdf ece          |dBg dBG:|
[2 c2A c2A|c2e ece|ceg dBG          |A2B dBG||
 |:G2g gfg|c2e ece|G2g g/f/e/f/g/e/ |GBd dBG |
   G2g gfg|gfg d2B|cde dBG          |A2B dBG:|

